!!!!SEGMENT: pl-kk--kk-i-382--060_anonim--offertorium-nro-1.krn
!!!cenid: 18xx:1562
!!!COM: Anonim
!!!COM-rismid: pe30004985
!!!CDT:
!!!CNT:
!!!OTL: Offertorium Nro 1
!!!PDT:
!!!AGN: Sacred
!!!SMS-siglum: PL-Kk
!!!SMS-shelfmark: Kk.I.382
!!!SMS-shelfwork: 046 W
!!!SMS-variant:
!!!SMS-altvar:
!!!NIFC-rismid: 1001140957
!!!URL-scan: http://repozytorium.nifc.pl/skany/pl-kk-nut--i-382
!!!ONB-nifc: UWAGA: Offertoria od skanu 0041 (S/T1), 0113 (T2), 0185 (A/B1), 0262 (B2)
**kern	**text	**kern	**text	**kern	**text	**kern	**text
*part4	*part4	*part3	*part3	*part2	*part2	*part1	*part1
*staff4	*staff4	*staff3	*staff3	*staff2	*staff2	*staff1	*staff1
*Ibass	*	*Itenor	*	*Ialto	*	*Itenor	*
*I"Basso II	*	*I"Tenore II	*	*I"Alto vel Basso I	*	*I"Soprano vel Tenore I.	*
*I'B II	*	*I'T II	*	*I'A vel B I	*	*I'S vel T I	*
*clefF4	*	*clefC4	*	*clefC3	*	*clefC1	*
*k[]	*	*k[]	*	*k[]	*	*k[]	*
*C:	*	*C:	*	*C:	*	*C:	*
*M3/2	*	*M3/2	*	*M3/2	*	*M3/2	*
=1	=1	=1	=1	=1	=1	=1	=1
*	*	*	*	*	*	*rscale:1/2	*
*	*	*	*	*	*	*2\right	*
!	!	!	!	!	!	!LO:TX:t=P:problem:all\right	!
!	!	!	!	!	!	!LO:TX:t=P:problem:metrum 3/4	!
!LO:TX:a:t=De SS&colon; Virginibus \n in C.	!	!LO:TX:a:t=De SS&colon; Virginibus. \n in C.	!	!	!	!LO:TX:a:t=De virginibus. in C.	!
1C	Ve-	1c	Ve-	1g	Ve-	1ee	Ve-
*	*	*2\right	*	*2\right	*	*	*
!	!	!LO:TX:t=P:problem:all\right	!	!LO:TX:t=P:problem:all\right	!	!	!
2C/	-ni	2c\	-ni	2g\	-ni	2ee\	-ni
=2	=2	=2	=2	=2	=2	=2	=2
1G	ve-	(2c\	ve-	1g	ve-	1dd	ve-
.	.	2B\)	.	.	.	.	.
*2\right	*	*	*	*	*	*	*
!LO:TX:t=P:problem:all\right	!	!	!	!	!	!	!
2G\	-ni	2B\	-ni	2g\	-ni	2dd\	-ni
=3	=3	=3	=3	=3	=3	=3	=3
(4E\	spon-	1c	spon-	(1g	spon-	1ee	Spon-
4D\	.	.	.	.	.	.	.
2C/)	.	.	.	.	.	.	.
2F\	-sa	2c\	-sa	2a\)	.	2cc\	-sa
=4	=4	=4	=4	=4	=4	=4	=4
(2E\	Chri-	(1c	Chri-	2g\	-sa	(2cc\	Chri-
2D\)	.	.	.	1f	Chri-	1dd)	.
2G\	.	2B\)	.	.	.	.	.
=5	=5	=5	=5	=5	=5	=5	=5
1.C	-sti	1.c	-sti	1.g	-sti	1.ee	-sti,
=6	=6	=6	=6	=6	=6	=6	=6
!	!	!LO:TX:a:t=1.	!	!	!	!	!
4E\	ac-	1.r	.	4e\	ac-	2.cc\	ac-
4D\	-ci-	.	.	4d\	-ci-	.	.
(4C\	-pe	.	.	(4c\	-pe	.	.
4D\)	.	.	.	4d\)	.	4cc\	-ci-
(4E\	co-	.	.	(4e\	co-	4b\	-pe
4F\)	.	.	.	4f\)	.	4a\	co-
!	!	!	!	!	!	!LO:LB:g=original	!
=7	=7	=7	=7	=7	=7	=7	=7
1G	-ro-	4B\	ac-	2g\	-ro-	1dd	-ro-
.	.	4A\	-ci-	.	.	.	.
.	.	(4G\	-pe	2g\	-nam	.	.
.	.	4A\)	.	.	.	.	.
2G\	-nam	(4B\	co-	2g\	co-	2dd\	-nam
.	.	4c\)	.	.	.	.	.
!LO:LB:g=original	!	!	!	!LO:LB:g=original	!	!	!
=8	=8	=8	=8	=8	=8	=8	=8
4F\	ac-	1d	-ro-	1f	-ro-	4a\	ac-
4E\	-ci-	.	.	.	.	4g\	-ci-
(4D\	-pe	.	.	.	.	(4f\L	-pe
4E\)	.	.	.	.	.	4g\J)	.
(4F\	co-	2d\	-nam	2f\	-nam	(4a\L	co-
4G\)	.	.	.	.	.	4b\J)	.
!	!	!LO:LB:g=original	!	!	!	!	!
=9	=9	=9	=9	=9	=9	=9	=9
1A	-ro-	4c\	ac-	4e\	ac-	1cc	-ro-
.	.	4B\	-ci-	4d\	-ci-	.	.
.	.	(4A\	-pe	(4c\	-pe	.	.
.	.	4B\)	.	4d\)	.	.	.
2A\	-nam	(4c\	co-	(4e\	co-	2cc\	-nam
.	.	4d\)	.	4f#X\)	.	.	.
=10	=10	=10	=10	=10	=10	=10	=10
4G#X\	ac-	1e	-ro-	1g#X	-ro-	4b\	ac-
4F#X\	-ci-	.	.	.	.	4a\	-ci-
(4E\	-pe	.	.	.	.	(4g#X\L	-pe
4F#\)	.	.	.	.	.	4a\J)	.
(4G#\	co-	2e\	-nam	2g#\	-nam	(4b\L	co-
4A\)	.	.	.	.	.	4cc\J)	.
=11	=11	=11	=11	=11	=11	=11	=11
2B\	-ro-	2d\	co-	2g#X\	co-	(1dd	-ro-
2G#X\	-nam	2B\	-ro-	1e	-ro-	.	.
2A\	co-	2c\	-nam	.	.	2cc\)	.
=12	=12	=12	=12	=12	=12	=12	=12
[1.E	-ro-	4G#X\	co-	1e	-nam	1b	-nam
.	.	4A\	.	.	.	.	.
.	.	4B\	.	.	.	.	.
.	.	4c\	.	.	.	.	.
.	.	4d\	.	2e\	co-	2r	.
.	.	4c\	.	.	.	.	.
!	!	!	!	!	!	!LO:LB:g=original	!
=13	=13	=13	=13	=13	=13	=13	=13
1.E_	.	4B\	.	1e	-ro-	4g#X\L	co-
.	.	4A\	.	.	.	4a\	.
.	.	4G#X\	.	.	.	4b\	.
.	.	4A\	.	.	.	4cc\	.
.	.	4B\	.	2e\	-nam	4dd\	.
.	.	4c\	.	.	.	4cc\J	.
=14	=14	=14	=14	=14	=14	=14	=14
(1.E]	.	1.d	-ro-	4g#X\	co-	(4b\L	-ro-
.	.	.	.	4a\	.	4a\J)	.
.	.	.	.	4b\	.	4g#X\L	-nam
.	.	.	.	4cc\	.	4a\	.
.	.	.	.	4dd\	.	4b\	.
.	.	.	.	4cc\	.	4cc\J	.
!LO:LB:g=original	!	!	!	!LO:LB:g=original	!	!	!
=15	=15	=15	=15	=15	=15	=15	=15
4E\	.	1.G#X	-nam.	2.b\	-ro-	1.dd	co-
4F#X\	.	.	.	.	.	.	.
4G#X\	.	.	.	.	.	.	.
4A\	.	.	.	4a\	.	.	.
4B\	.	.	.	4g#X\	.	.	.
4A\	.	.	.	4a\	.	.	.
!	!	!LO:LB:g=original	!	!	!	!	!
=16	=16	=16	=16	=16	=16	=16	=16
2G#X\	.	(1d	co-	2e\	.	1b	-ro-
2E\)	.	.	.	2g#X\	-nam	.	.
2A\	-nam	2e\)	.	2a\	co-	2cc\	-nam
=17	=17	=17	=17	=17	=17	=17	=17
2D\	co-	(2f#X\	-ro-	1a	-ro-	2cc\	co-
1E	-ro-	1e)	.	.	.	1b	-ro-
.	.	.	.	2g#X\	.	.	.
=18	=18	=18	=18	=18	=18	=18	=18
4AA/	-nam	2e\	-nam	4a\	-nam	4cc\	-nam
4E\	quam	.	.	4cc\	quam	4ee\	quam
(4E\	ti-	2r	.	(4cc\	ti-	(4ee\L	ti-
4D\)	.	.	.	4b\)	.	4dd\J)	.
(4C/	-bi	2r	.	(4a\	-bi	(4cc\L	-bi
4BB/)	.	.	.	4gn\)	.	4b\J)	.
!	!	!	!	!	!	!LO:LB:g=original	!
=19	=19	=19	=19	=19	=19	=19	=19
4r	.	4r	.	2.a\	Do-	2.cc\	Do-
4A\	quam	4e\	quam	.	.	.	.
(4A\	ti-	2e\	ti-	.	.	.	.
4Gn\)	.	.	.	4a\	-mi-	4cc\	-mi-
(4Fn\	-bi	(4d\	-bi	2a\	-nus	2cc\	-nus
4E\)	.	4e\)	.	.	.	.	.
!	!	!	!	!LO:LB:g=original	!	!	!
=20	=20	=20	=20	=20	=20	=20	=20
2.D\	Do-	2.f\	Do-	4r	.	4r	.
.	.	.	.	4a\	quam	4ff\	quam
.	.	.	.	(4a\	ti-	(4ff\L	ti-
4D\	-mi-	4f\	-mi-	4g\)	.	4ee\J)	.
2D\	-nus	2f\	-nus	(4f\	-bi	(4dd\L	-bi
.	.	.	.	4e\)	.	4cc\J)	.
!LO:LB:g=original	!	!	!	!	!	!	!
=21	=21	=21	=21	=21	=21	=21	=21
4r	.	4r	.	2.d\	Do-	2.b\	Do-
4G\	quam	4B\	quam	.	.	.	.
(4G\	ti-	2B\	ti-	.	.	.	.
4Fn\)	.	.	.	4d\	-mi-	4b\	-mi-
(4E\	-bi	(4c\	-bi	2d\	-nus	2b\	-nus
4D\)	.	4d\)	.	.	.	.	.
=22	=22	=22	=22	=22	=22	=22	=22
2C/	Do-	2e\	Do-	2g\	Do-	2ee\	Do-
4C/	-mi-	4c\	-mi-	4g\	-mi-	4ee\	-mi-
4D/	-nus	4B\	-nus	4f\	-nus	4dd\	-nus
!	!	!LO:LB:g=original	!	!	!	!	!
4E\	pre-	4c\	pre-	4g\	pre-	4cc\	pre-
4F\	-pa-	4f\	-pa-	4a\	-pa-	4dd\	-pa-
=23	=23	=23	=23	=23	=23	=23	=23
[1.G	-ra-	(1.d	-ra-	1.g	-ra-	4b\L	-ra-
.	.	.	.	.	.	4a\	.
.	.	.	.	.	.	4g\	.
.	.	.	.	.	.	4a\	.
.	.	.	.	.	.	4b\	.
.	.	.	.	.	.	4cc\J	.
!	!	!	!	!	!	!LO:LB:g=original	!
=24	=24	=24	=24	=24	=24	=24	=24
1.G_	.	1.B)	.	(4b\	.	4dd\L	.
.	.	.	.	4a\	.	4cc\	.
.	.	.	.	4g\	.	4b\	.
.	.	.	.	4a\	.	4cc\	.
.	.	.	.	4b\	.	4dd\	.
.	.	.	.	4cc\)	.	4ee\J	.
!	!	!	!	!LO:LB:g=original	!	!	!
=25	=25	=25	=25	=25	=25	=25	=25
1.G_	.	4B\	.	4dd\	.	1.ff	.
.	.	4A\	.	4cc\	.	.	.
.	.	4G\	.	4b\	.	.	.
.	.	4A\	.	4a\	.	.	.
.	.	4B\	.	4g\	.	.	.
.	.	4c\	.	4a\	.	.	.
=26	=26	=26	=26	=26	=26	=26	=26
4G\]	.	4d\	.	2b\	-vit	2dd\	-vit
4A\	.	4c\	.	.	.	.	.
4B\	.	4d\	.	2g\	pre-	2dd\	pre-
4c\	.	4e\	.	.	.	.	.
4d\	.	4f\	.	2g\	-pa-	2dd\	-pa-
4c\	.	4e\	.	.	.	.	.
=27	=27	=27	=27	=27	=27	=27	=27
2B\	.	2.d\	.	2g\	-ra-	2ff\	-ra-
2G\	-vit	.	.	2b\	-vit	2ff\	-vit
.	.	4d\	-vit	.	.	.	.
2c\	in	2e\	in	2g\	in	2ee\	in
!LO:LB:g=original	!	!	!	!	!	!	!
=28	=28	=28	=28	=28	=28	=28	=28
!	!LO:SIC:l:s=ae-:v	!	!LO:SIC:l:s=ae-:v	!	!LO:SIC:l:s=ae-:v	!	!LO:SIC:l:s=ae-:v
2A\	e-	2c\	e-	(4f\	e-	2ff\	e-
.	.	.	.	4g\)	.	.	.
(2F\	-ter-	(2c\	-ter-	(2a\	-ter-	1dd	-ter-
2G\)	.	2B\)	.	2g\)	.	.	.
!	!	!LO:LB:g=original	!	!	!	!	!
=29	=29	=29	=29	=29	=29	=29	=29
4C/	-num	4c\	-num	1g	-num	1ee	-num
4c\	quam	4e\	quam	.	.	.	.
(4c\	ti-	2e\	ti-	.	.	.	.
4B-X\)	.	.	.	.	.	.	.
(4A\	-bi	(4d\	-bi	2r	.	2r	.
4G\)	.	4e\)	.	.	.	.	.
!	!	!	!	!LO:LB:g=original	!	!	!
=30	=30	=30	=30	=30	=30	=30	=30
2.F\	Do-	2.c\	Do-	4r	.	4r	.
.	.	.	.	4a\	quam	4ff\	quam
.	.	.	.	(4a\	ti-	(4ff\L	ti-
4F\	-mi-	4c\	-mi-	4g\)	.	4ee\J)	.
2F\	-nus	2c\	-nus	(4f\	-bi	(4dd\L	-bi
.	.	.	.	4e\)	.	4cc\J)	.
!	!	!	!	!	!	!LO:LB:g=original	!
=31	=31	=31	=31	=31	=31	=31	=31
4r	.	4r	.	2.d\	Do-	2.b\	Do-
4G\	quam	4B\	quam	.	.	.	.
(4G\	ti-	2B\	ti-	.	.	.	.
4F\)	.	.	.	4d\	-mi-	4b\	-mi-
(4E\	-bi	(4c\	-bi	2d\	-nus	2b\	-nus
4D\)	.	4d\)	.	.	.	.	.
=32	=32	=32	=32	=32	=32	=32	=32
2C/	Do-	2e\	Do-	2g\	Do-	2ee\	Do-
4C/	-mi-	4c\	-mi-	4g\	-mi-	4ee\	-mi-
4D/	-nus	4B\	-nus	4f\	-nus	4dd\	-nus
4E\	pre-	4c\	pre-	4g\	pre-	4cc\	pre-
4F\	-pa-	4f\	-pa-	4a\	-pa-	4dd\	-pa-
!LO:LB:g=original	!	!	!	!	!	!	!
=33	=33	=33	=33	=33	=33	=33	=33
[1.G	-ra-	(1.d	-ra-	1.g	-ra-	4b\L	-ra-
.	.	.	.	.	.	4a\	.
.	.	.	.	.	.	4g\	.
.	.	.	.	.	.	4a\	.
.	.	.	.	.	.	4b\	.
.	.	.	.	.	.	4cc\J	.
=34	=34	=34	=34	=34	=34	=34	=34
1.G_	.	1.B)	.	(4b\	.	4dd\L	.
.	.	.	.	4a\	.	4cc\	.
.	.	.	.	4g\	.	4b\	.
.	.	.	.	4a\	.	4cc\	.
.	.	.	.	4b\	.	4dd\	.
.	.	.	.	4cc\)	.	4ee\J	.
!	!	!LO:LB:g=original	!	!LO:LB:g=original	!	!	!
=35	=35	=35	=35	=35	=35	=35	=35
1.G_	.	4B\	.	4dd\	.	1.ff	.
.	.	4A\	.	4cc\	.	.	.
.	.	4G\	.	4b\	.	.	.
.	.	4A\	.	4a\	.	.	.
.	.	4B\	.	4g\	.	.	.
.	.	4c\	.	4a\	.	.	.
!	!	!	!	!	!	!LO:LB:g=original	!
=36	=36	=36	=36	=36	=36	=36	=36
4G\]	.	4d\	.	2b\	-vit	2dd\	-vit
4A\	.	4c\	.	.	.	.	.
4B\	.	4d\	.	2g\	pre-	2dd\	pre-
4c\	.	4e\	.	.	.	.	.
4d\	.	4f\	.	2g\	-pa-	2dd\	-pa-
4c\	.	4e\	.	.	.	.	.
=37	=37	=37	=37	=37	=37	=37	=37
2B\	.	2.d\	.	2g\	-ra-	2.ff\	-ra-
2G\	-vit	.	.	2b\	-vit	.	.
.	.	4d\	-vit	.	.	4ff\	-vit
2c\	in	2e\	in	2g\	in	2ee\	in
=38	=38	=38	=38	=38	=38	=38	=38
!	!LO:SIC:l:s=ae-:v	!	!LO:SIC:l:s=ae-:v	!	!LO:SIC:l:s=ae-:v	!	!LO:SIC:l:s=ae-:v
2A\	e-	2c\	e-	(4f\	e-	2ff\	e-
.	.	.	.	4g\)	.	.	.
2F\	-ter-	(2c\	-ter-	(2a\	-ter-	1dd	-ter-
2G\	.	2B\)	.	2g\)	.	.	.
=39	=39	=39	=39	=39	=39	=39	=39
2C/	-num	2c\	-num	2g\	-num	2ee\	-num
2F\	in	2A\	in	2a\	in	2cc\	in
!	!LO:SIC:l:s=ae-:v	!	!LO:SIC:l:s=ae-:v	!	!LO:SIC:l:s=ae-:v	!	!LO:SIC:l:s=ae-:v
2E\	e-	2c\	e-	2g\	e-	2cc\	e-
=40	=40	=40	=40	=40	=40	=40	=40
1.F	-ter-	1.A	-ter-	1.f	-ter-	1.cc	-ter-
=41	=41	=41	=41	=41	=41	=41	=41
1.C	-num.	1.G	-num.	1.e	-num.	1.cc	-num.
==	==	==	==	==	==	==	==
*-	*-	*-	*-	*-	*-	*-	*-
!!!system-decoration: [(s1,s2,s3,s4)]
!!!AIN: 1 alto 1 bass 2 tenor
!!!ENC: Zofia Niedbalska
!!!END: 2021-03-16
!!!ENC: Katarzyna Serwa
!!!END: 2021-01-31
